X:5069
T:The Dabchick
M:6/8
R:Jig
L:1/8
Q:180
C:Aidan Crossey
K:G
|:A|BAG BAG|Add d2e|fed cAF|AGF E2D|
BAG BAG|Add d2e|fed cAF|AGF G2:||
|:e|fed fed|gag g2d|ecA ABG|AFA cBA|
BAG BAG|Add d2e|fed cAF|AGF G2:||
